X: 245
T: I'll Be a Good Boy
B: O'Neill's 245
N: "Moderate"
N: "Collected by J.O'Neill"
Z: 1997 by John Chambers <jc@trillian.mit.edu>
M: 3/4
L: 1/8
K:D
(Ad) \
|f2 gf ed|c2 A2 AG|F2 D2 DE|D4 Ad \
|fg a2 gf|ef g2 fe|dc A2 A2|A4 de|
||fg a2 gf|ef g2 fe|dc de fg|f4 ef/e/ \
|d2 A2 AG|F2 D2 FG|A2 d2 dfe|Hd4||
